usr/share/icons/biglinux-icons-material-dark/22/actions/media-playlist-play.svg

<svg xmlns="http://www.w3.org/2000/svg" viewBox="0 0 22 22">
  <defs id="defs3051">
    <style type="text/css" id="current-color-scheme">
      .ColorScheme-Text {
        color:#dedede;
      }
      </style>
  </defs>
 <path 
    style="fill:currentColor;fill-opacity:1;stroke:none" 
    d="M 11 3 C 6.568002 3 3 6.568002 3 11 C 3 15.431998 6.568002 19 11 19 C 11.692084 19 12.360349 18.903948 13 18.740234 L 13 17.707031 C 12.366247 17.894565 11.696167 18 11 18 C 7.122001 18 4 14.877999 4 11 C 4 7.122001 7.122001 4 11 4 C 14.877999 4 18 7.122001 18 11 C 18 11.696167 17.894565 12.366247 17.707031 13 L 18.740234 13 C 18.903948 12.360349 19 11.692084 19 11 C 19 6.568002 15.431998 3 11 3 z M 10 5 L 10 12 L 11 12 L 16 12 L 16 11 L 11 11 L 11 5 L 10 5 z M 14 13 L 14 19 L 20 16 L 14 13 z "
    class="ColorScheme-Text"
    />  
</svg>

<svg xmlns="http://www.w3.org/2000/svg" viewBox="0 0 22 22">
<defs id="defs3051">
<style id="current-color-scheme" type="text/css">
.ColorScheme-Text{color:#dedede}
</style>
</defs>
<path d="M11 3c-4.432 0-8 3.568-8 8a7.982 7.982 0 0 0 10 7.74v-1.033A7 7 0 0 1 11 18c-3.878 0-7-3.122-7-7s3.122-7 7-7 7 3.122 7 7a7 7 0 0 1-.293 2h1.033A7.982 7.982 0 0 0 11 3m-1 2v7h6v-1h-5V5zm4 8v6l6-3z" class="ColorScheme-Text" style="fill:currentColor;fill-opacity:1;stroke:none"/>
</svg>
